!!!COM: Haydn, Franz Joseph
!!!CDT: 1732/03/31-1809/05/31
!!!CNT: Austrian
!!!OTL: Sonata No. 62 in E-flat major
!!!SCT: Hob. XVI:52
!!!OMV: Mvmt. 1
!!!OMD: Allegro.
!!!ODT: 1794
**kern	**kern	**dynam
*staff2	*staff1	*staff1/2
*Ipiano	*Ipiano	*Ipiano
*>[A,A,B]	*>[A,A,B]	*>[A,A,B]
*>norep[A,B]	*>norep[A,B]	*>norep[A,B]
*>A	*>A	*>A
*clefF4	*clefG2	*
*k[b-e-a-]	*k[b-e-a-]	*
*E-:	*E-:	*
*met(c)	*met(c)	*
*M4/4	*M4/4	*
*MM92	*MM92	*
=1-	=1-	=1-
*	*	*^
!	!	!	!LO:DY:b=2
4EE-: 4GG: 4BB-: 4E-:	(>4G: 4B-: 4e-:	ff	fz
*	*	*v	*v
8.EE-: 8.GG: 8.BB-: 8.D-:L	8.d-: 8.e-: 8.g:L	.
16EE- 16GG 16BB- 16D-Jk	16d- 16e- 16gJk	.
2EE-: 2AA-: 2C:	[4c: [4e-: [4a-:)	sf
.	8c] 8e-] 8a-L]	.
.	(32a-LL	.
.	32g	.
.	32f	.
.	32e-JJJ	.
=2	=2	=2
*	*^	*
4EE-: 4FF: 4AA-: 4Dn:	&(8.dnL	4A- 4B-)	.
.	16fJk	.	.
4EE-: 4FF: 4AA-: 4D:	8.b-:L	4d: 4f:	.
.	16a-Jk	.	.
4EE-: 4GG: 4BB-: 4E-:	4g&)	4B- 4e-	.
4r	4r	4ryy	.
*clefG2	*	*	*
*	*v	*v	*
=3	=3	=3
8B-' 8f' 8a-'	(8.ddL	p
8r	.	.
.	16ffJk	.
8B-' 8f' 8a-'	8.bb-L	.
16r	.	.
(16d	16aa-Jk	.
8e-)	8gg)	.
8r	8r	.
*clefF4	*	*
16r	16r	.
(16B-LL	16aa- (16cccLL	mf
16c	16gg 16bb-	.
16dJJ	16ff 16aa-JJ	.
!!LO:LB:g=z
=4	=4	=4
8e-`)	8ee-` 8gg`)	.
8r	8r	.
16r	16r	.
(16B-LL	16aa- (16cccLL	<
16c	16gg 16bb-	.
16dJJ	16ff 16aa-JJ	.
8e-`)	8ee-` 8gg`)	.
8r	8r	.
4r	16r	.
.	16aa- (16cccLL	f
.	16gg 16bb-	.
.	16ff 16aa-JJ	.
=5	=5	=5
1r	16ee-` 16gg`LL)	.
.	16aa- (16ccc	.
.	16gg 16bb-	.
.	16ff 16aa-JJ	.
.	16ee-` 16gg`LL)	>
.	16gg (16bb-	.
.	16ff 16aa-	.
.	16ee- 16ggJJ	.
.	16dd 16ffLL	.
.	16cc 16ee-	.
.	16b- 16dd	.
.	16a- 16ccJJ	.
.	16g 16b-LL	.
.	16f 16a-	.
.	16e- 16g	.
.	16d 16fJJ	]]
=6	=6	=6
(16CLL	[4e-)	p
16A-	.	.
16C	.	.
16A-JJ	.	.
16CLL	(8.e-L]	.
16A-	.	.
16C	.	.
16A-JJ	32fLL	.
.	32e-JJJ	.
16BB-LL	4d	.
16A-	.	.
16BB-	.	.
16A-JJ	.	.
16BB-LL	4d-^>	.
16G	.	.
16BB-	.	.
16GJJ	.	.
!!LO:LB:g=z
=7	=7	=7
16AA-LL	[4c)	.
16G	.	.
16AA-	.	.
16GJJ	.	.
16AA-LL<	(8.cL]	.
16F	.	.
16AA-	.	.
16FJJ	32dnLL	.
.	32cJJJ	.
16GGLL<	8.B-L	.
16F	.	.
16GG	.	.
16FJJ	32cLL	.
.	32dJJJ	<
16GGLL<	8.e-L	.
16E-	.	.
16GG	.	.
16E-JJ	32fLL	.
.	32gJJJ	[
=8	=8	=8
16FFLL	4a-	>
16D	.	.
16FF	.	.
16DJJ	.	.
16EE-LL	4g	]
16GG	.	.
16BB-	.	.
16E-JJ)	.	.
8AA-/` 8A-/`	8c`> 8f`>)	.
8r	8r	.
8BB-/` 8F/`	8A-`> 8d`>	.
8r	8r	.
=9	=9	=9
*	*^	*
4E-: 4G: 4B-: 4e-:	4b-: (4ee-:	4g:	ff
4E-: 4G: 4B-: 4d-:	8.ee- 8.ggL	4dd-	.
.	16ee-Jk	.	.
2E-: 2A-: 2c:	4ee-: 4aa-:)	4cc:	fz
.	(>32cccLLL	4ryy	.
.	32bb-	.	.
.	32aa-	.	.
.	32ggJJJ	.	.
.	32ffLLL	.	.
.	32ee-	.	.
.	32ddn	.	.
.	32ccJJJ	.	.
*	*v	*v	*
!!LO:LB:g=z
=10	=10	=10
4E- 4F 4A- 4B- 4dn	32b-LLL	.
.	32a-	.
.	32g	.
.	32fJJJ	.
.	32e-LLL	.
.	32d	.
.	32c	.
.	32B-JJJ	.
*	*clefF4	*clefF4
!	!LO:TUP:a	!
4r	40A-LLL<	.
.	40G	.
.	40F	.
.	40E-	.
.	40D	.
.	40C	.
.	40BB-	.
.	40AA-	.
.	40GG	.
.	40FFJJJ	.
4r>	4EE-<)	.
*clefG2	*clefG2	*clefG2
(8.ee-L	(16cccLL	p
.	16gg	.
.	16ccc	.
32ffLL	16ggJJ	.
32ee-JJJ	.	.
=11	=11	=11
4dd	16cccLL	.
.	16ff	.
.	16ccc	.
.	16ffJJ	.
4dd-	16bb-LL	.
.	16ff	.
.	16bb-	.
.	16ffJJ	.
[4cc)	16bb-LL	.
.	16een	.
.	16bb-	.
.	16eeJJ	.
(8.ccL]	(16aa-XLL)	.
.	16ee-	.
.	16aa-	.
32ddnLL	16ee-JJ	.
32ccJJJ	.	.
!!LO:LB:g=z
=12	=12	=12
[4b-	16aa-LL	<
.	16dd	.
.	16aa-	.
.	16ddJJ	.
8.b-L]	16ggLL	.
.	16dd-	.
.	16gg	.
32ccLL	16dd-JJ	.
32b-JJJ	.	.
4an	16ggLL	.
.	16cc	.
.	16gg	.
.	16ccJJ	.
(>8.a-L)	(16ffLL)	.
.	16cc	.
.	16ff	.
32b-LL	16ccJJ	.
32a-JJJ	.	.
=13	=13	=13
4g	16ffLL	.
.	16b-	.
.	16ff	.
.	16b-JJ	.
4g-	16ee-LL	.
.	16b-	.
.	16ee-	.
.	16b-JJ	.
4f	16ee-LL	.
.	16an	.
.	16ee-	.
.	16aJJ	.
4en	16dd-LL	.
.	16b-	.
.	16dd-	.
.	16b-JJ	.
*clefF4	*	*
=14	=14	=14
*^	*	*
4f)	1F	16anLL)	f
.	.	(16cc	.
.	.	16ff	.
.	.	16ccJJ	.
!	!	!	!LO:DY:b=2
(8.e-XL	.	16gg-LL	fz
.	.	16a	.
.	.	16aan	.
32fLL	.	16ccJJ	.
32e-JJJ	.	.	.
8d-L	.	16bb-LL	.
.	.	16b-	.
8B-J	.	16gg-	.
.	.	16b-JJ	.
8cL	.	16ffLL	.
.	.	16b-	.
8d-J	.	16een	.
.	.	16b-JJ	.
!!LO:LB:g=z
=15	=15	=15	=15
4c)	1F	16ffLL)	.
.	.	(16an	.
.	.	16cc	.
.	.	16aJJ	.
!	!	!	!LO:DY:b=2
(8.e-L	.	16gg-LL	fz
.	.	16a	.
.	.	16aan	.
32fLL	.	16ccJJ	.
32e-JJJ	.	.	.
8d-L	.	16bb-LL	.
.	.	16b-	.
8B-J	.	16gg-	.
.	.	16b-JJ	.
8cL	.	16ffLL	.
.	.	16b-	.
8d-J	.	16een	.
.	.	16b-JJ	.
=16	=16	=16	=16
4c)	1F	16ffLL)	<
.	.	(16an	.
.	.	16cc	.
.	.	16aJJ	.
*	*	*Xbrackettup	*
*	*	*tuplet	*
!	!	!LO:TUP:a:r=8	!
(4An 4c	.	24ffLL	.
.	.	24cc	.
.	.	24a	.
!	!	!LO:TUP:a:r=8	!
.	.	24ff	.
.	.	24cc	.
.	.	24aJJ	.
*	*	*Xtuplet	*
4B- 4d-	.	24eenLL	.
.	.	24b-	.
.	.	24gn	.
.	.	24ee	.
.	.	24b-	.
.	.	24gJJ	.
4A 4c)	.	24ee-LL	.
.	.	24cc	.
.	.	24f	.
.	.	24ee-	.
.	.	24cc	.
.	.	24fJJ)	.
*v	*v	*	*
=17	=17	=17
*	*^	*
4BB-: 4D: 4F: 4B-:	4d: 4f: (>4b-:	4ryy	ff
4BB-: 4D: 4F: 4A-X:	8.ddL	4a-X 4b-	.
.	16b-Jk	.	.
2BB-: 2E-: 2G:	[4g: [>4b-: [>4ee-:	4ryy	sf
.	16g] 16b-] 16ee-LL<])	4ryy	.
.	(>32ggL	.	.
.	32ffJJJ	.	.
.	32ee-LLL<	.	.
.	32dd	.	.
.	32cc	.	.
.	32b-JJJ	.	.
*	*v	*v	*
!!LO:LB:g=z
=18	=18	=18
2BB- 2C 2E- 2An	32anLLL	.
.	32b-	.
.	32cc	.
.	32ddJJJ	.
.	32ee-LLL	<
.	32ff	.
.	32gg	.
.	32aanJJJ	.
.	32bb-LLL	.
.	32ccc	.
.	32ddd	.
.	32eee-JJJ	.
.	16fff'LL)	[
.	16eee-'JJ	.
4BB- 4D 4F 4B-	(16ddd'LL	.
.	16ccc'	.
.	16bb-	.
.	16aa'JJ	.
4r	16ggLL	.
.	16ff'	.
.	16ee-'	.
.	16dd'JJ)	.
=19	=19	=19
*	*tuplet	*
!	!LO:TUP:a	!
2BB- 2C 2E- 2An	(40ccLLL	.
.	40b-	.
.	40an	.
.	40b-	.
.	40cc	<
.	40dd	.
.	40ee-	.
.	40ff	.
.	40gg	.
.	40aanJJJ	.
.	32bb-LLL	.
.	32ccc	.
.	32ddd	.
.	32eee-JJJ	.
.	16fff`LL)	.
.	16eee-`JJ	[
4BB- 4D 4F 4B-	(16dddtLL	.
.	16ccc)	.
.	(16bb-T	.
.	16aaJJ)	.
4r	(16ggTLL	.
.	16ff)	.
.	(16ee-T	.
.	16ddJJ)	.
!!LO:LB:g=z
=20	=20	=20
*	*^	*
(16E-LL	[4gg	(>(16ddLL	.
16G	.	16ff	.
16An	.	16ee-	.
16BnJJ	.	16ddJJ	.
8.cL)	16ggLL]	[4ee-)	.
.	16bb-	.	.
.	16aan	.	.
(16B-Jk	16ggJJ	.	.
*clefG2	*	*	*
16AnLL	[4ff	(16ee-LL]	.
16f	.	16dd	.
16g	.	16ee-	.
16anJJ	.	16ccJJ	.
4b-/)	16ffLL]	4dd)	.
.	16bb-	.	.
.	16aa	.	.
.	16ggJJ	.	.
*	*v	*v	*
=21	=21	=21
*^	*	*
*	*^	*	*
2cc	2g	1b-	16ff^LL	<
.	.	.	16een	.
.	.	.	16gg	.
.	.	.	16ffJJ	.
.	.	.	16eeLL	.
.	.	.	16bb-	.
.	.	.	16aan	.
.	.	.	16ggJJ	[
(2dd-	[2g	.	16ffLL	>
.	.	.	16ee	.
.	.	.	16gg	.
.	.	.	16ffJJ	.
.	.	.	16eeLL	.
.	.	.	16bb-	.
.	.	.	16aa	.
.	.	.	16ggJJ	]
*	*v	*v	*	*
=22	=22	=22	=22
4cc	2g]	16ffLL	p
.	.	16een	.
.	.	16gg	.
.	.	16ffJJ	.
*	*	*	*^
4b-	.	16eeLL	<	.
.	.	16bb-	.	.
.	.	16gg	.	.
.	.	16eeJJ	.	.
4.an)	4.f	16ggLL	.	.
.	.	16ff	.	.
.	.	16ee	.	.
.	.	16ffJJ	.	.
.	.	16eeLL	.	.
.	.	16ff)	.	.
*	*	*	*	*^
!	!	!	!	!LO:DY:a:rj	!LO:DY:a=2:rj
8G' 8B-' 8e-' 8g'	8ryy	16b-' 16ee-' 16gg' 16bb-'	.	fz	fz
.	.	16ee-'JJ	[	.	.
*	*	*	*v	*v	*v
!!LO:LB:g=z
*v	*v	*	*
!!LO:LB:g=z
=23	=23	=23
4.f 4.an	(16ee-LL	<
.	16dd	.
.	16cc#	.
.	16ddJJ	.
.	16cc#LL	.
.	16dd)	.
*clefF4	*	*
*	*	*^
!	!	!LO:DY:a:rj	!LO:DY:b=2:rj
8E-' 8G' 8c' 8e-'	16g' 16ccn' 16ee-' 16gg'	fz	fz
*	*	*v	*v
.	16cc'JJ	.
4.d 4.f	(16ccLL	.
.	16b-	.
.	16an	.
.	16b-JJ	.
.	16aLL<	.
.	16b-)	.
*	*	*^
!	!	!LO:DY:a:rj	!LO:DY:b=2:rj
8D' 8F' 8B-' 8d'	16f 16b- 16dd 16ff	fz	fz
*	*	*v	*v
.	16b-'JJ	.
=24	=24	=24
!	!	!LO:DY:rj
8E-' 8F' 8An' 8c'	(32anLLL	f
.	32gg	.
.	32ff	.
.	32ee-JJJ	.
8r	32ddLLL	.
.	32cc	.
.	32b-	.
.	32aJJJ	.
8D' 8F' 8B-' 8d'	32b-LLL	.
.	32ff	.
.	32gg	.
.	32ffJJJ	.
8r	32ee-LLL	.
.	32dd	.
.	32cc	.
.	32b-JJJ	.
8E-' 8F' 8A' 8c'	32aLLL	.
.	32gg	.
.	32ff	.
.	32ee-JJJ	.
8r	32ddLLL	.
.	32cc	.
.	32b-	.
.	32aJJJ	.
8D' 8F' 8B-' 8d'	32b-LLL	.
.	32cc	.
.	32dd	<
.	32ee-JJJ	.
8r	32ffLLL	.
.	32gg	.
.	32aan	.
.	32bb-JJJ	[
!!LO:LB:g=z
=25	=25	=25
2D 2F 2A-X 2B- 2d	32aa-XLLL	fz
.	32bb-	.
.	32ccc	.
.	32bb-JJJ	.
.	32aa-LLL	.
.	32gg	.
.	32ff	.
.	32ee-JJJ	.
.	32ddLLL	.
.	32ee-	.
.	32ff	.
.	32ee-JJJ	.
.	32ddLLL	.
.	32cc	.
.	32b-	.
.	32a-XJJJ	.
4E- 4G 4B- 4e-	16g)	.
.	16gg`LL	p
.	16ff#`	.
.	16aan`JJ	.
4r	16gg`LL	.
.	16bb-`	.
.	16ff#`	.
.	16aa`JJ	.
=26	=26	=26
*^	*^	*
8r	8ryy	16gg`LL	2.ryy	<
.	.	16bb-`	.	.
*clefG2	*clefG2	*	*	*
16f#`LL	4ryy	16ff#`	.	.
16an`JJ	.	16aan`JJ	.	.
!	!	!	!	!LO:DY:a=2
16g`LL	.	16gg`LL	.	f
16b-`JJ	.	16bb-`JJ	.	.
!LO:TUP:b	!	!LO:TUP:a	!	!
(>24gLL	8ryy	(24ggLL	.	.
24e-	.	24ee-	.	.
24cJJ	.	24ccJJ	.	.
*clefF4	*	*	*	*
4d	2Fn	8b-L	.	.
.	.	32ccLL	.	.
.	.	32b-	.	.
.	.	32an	.	.
.	.	32b-JJJ	.	.
4e-	.	8.ddL	4a	.
.	.	16ccJk	.	.
*	*	*v	*v	*
!!LO:LB:g=z
=27	=27	=27	=27
8d)	8B-	8b-)	.
8r	8ryy	16.r	.
.	.	(32fff	p
*clefG2	*	*	*
!	!	!	!LO:DY:b=2
8b-' 8dd'L>	2.ryy	16ddd'LL)	p
.	.	32r	.
.	.	(32fffk	.
8f' 8cc'J	.	16ccc')	.
.	.	32r	.
.	.	(32fffJJk	.
8d' 8b-'	.	16bb-'LL)	.
.	.	32r	.
.	.	(32fffk	.
8r	.	16ff')	.
.	.	32r	.
.	.	(32fffJJk	.
8b-' 8dd'L>	.	16ddd'LL)	.
.	.	32r	.
.	.	(32fffk	.
8f' 8cc'J	.	16ccc')	.
.	.	32r	.
.	.	(32fffJJk	.
=28	=28	=28	=28
8d' 8b-'	2ryy	16bb-'LL)	.
.	.	32r	.
.	.	(32fffk	.
8r	.	16ff')	.
.	.	32r	.
.	.	(32fffJJk	.
8d' 8b-'L	.	16aa-X'LL)	.
.	.	32r	.
.	.	(32fffk	.
8d' 8b-'J	.	16ff#')	.
.	.	32r	.
.	.	(32fffJJk	.
(8b-L	4.e-	16gg'LL)	<
.	.	32r	.
.	.	(32bbnk	.
8gJ	.	16ccc')	.
.	.	32r	.
.	.	(32dddJJk	.
[4cc)	.	16eee-'LL)	[
.	.	32r	.
.	.	(32dddk	.
.	(8en	16ccc')	.
.	.	32r	.
.	.	(32bb-JJk	.
!!LO:LB:g=z
=29	=29	=29	=29
4.cc]	8fL	16aan'LL)	<
.	.	32r	.
.	.	(32ggk	.
.	8gJ	16ff')	.
.	.	32r	.
.	.	(32eenJJk	.
.	8anL)	16ff'LL)	.
.	.	32r	.
.	.	(32ggk	.
8f	8AnJ	16ff')	.
.	.	32r	.
.	.	(32ee-JJk	.
16B- (16d-LL	2ryy	32dd-LLL	f
.	.	32ee-	.
16f	.	32dd-	.
.	.	32ccJJJ	.
16B- 16d-	.	16b-`LL)	.
16fJJ	.	16b-`JJ	.
16An 16cLL	.	(32ee-LLL	.
.	.	32ff	.
16f	.	32ee-	.
.	.	32dd-JJJ	.
16A 16c	.	16cc`LL)	.
16fJJ	.	16cc`JJ	.
*v	*v	*	*
=30	=30	=30
16B- 16d-LL	(32dd-LLL	.
.	32ee-	.
16f	32dd-	.
.	32ccJJJ	.
16B- 16d-	)16b-`LL)	.
16fJJ	16b-`JJ	.
16An 16cLL	(32ee-LLL	.
.	32ff	.
16f	32ee-	.
.	32dd-JJJ	.
16A 16c	16cc`LL)	.
16fJJ)	16cc`JJ	.
*clefF4	*	*
!	!	!LO:DY:rj
8D-' 8d-X'L	(32dd-LLL	ff
.	32ee-	.
.	32dd-	.
.	32ccJJJ	.
8BB-' 8B-'J	32b-LLL	.
.	32cc	.
.	32b-	.
.	32a-XJJJ	.
8GG-' 8G-'L	32g-LLL	.
.	32a-	.
.	32g-	.
.	32fJJJ	.
8EE-' 8E-'J	32e-LLL	.
.	32f	.
.	32e-	.
.	32d-JJJ	.
!!LO:LB:g=z
=31	=31	=31
(4CC 4C	32cLLL	.
.	32d-	.
.	32e-	.
.	32d-JJJ	.
.	32cLLL	.
.	32d-	.
.	32e-	.
.	32d-JJJ	.
4BBB- 4BB-	32cLLL	.
.	32d-	.
.	32e-	.
.	32d-JJJ	.
.	32cLLL	.
.	32d-	.
.	32e-	.
.	32d-JJJ	.
4AAAn 4AAn	32cLLL	>
.	32d-	.
.	32e-	.
.	32d-JJJ	.
.	32cLLL	.
.	32d-	.
.	32e-	.
.	32d-JJJ	.
4GGG- 4GG-	32cLLL	.
.	32d-	.
.	32e-	.
.	32d-JJJ	.
.	32cLLL	.
.	32d-	.
.	32e-	.
.	32d-JJJ	]
=32	=32	=32
1FFF) 1FF	32cLLL	p
.	32dn	.
.	32e-	.
.	32dJJJ	.
.	32cLLL	.
.	32d	.
.	32e-	.
.	32dJJJ	.
.	32cLLL	.
.	32d	.
.	32e-	.
.	32dJJJ	.
.	32cLLL	.
.	32d	.
.	32e-	.
.	32dJJJ	.
.	32cLLL	.
.	32d	.
.	32e-	.
.	32dJJJ	.
!	!LO:TX:b:i:t=cresc.	!
.	32cLLL	<
.	32d	.
.	32e-	.
.	32dJJJ	.
.	32cLLL	.
.	32d	.
.	32e-	.
.	32fJJJ	.
.	32gLLL	.
.	32an	.
.	32b-	.
.	32ccJJJ	[[
!!LO:LB:g=z
=33	=33	=33
*	*^	*
4B-: 4d: 4f:	(4dd)	4b-	ff
4An: 4c: 4f:	4ff:	4cc:	.
2G: 2B-: 2e-:	[4bb-:)	[4b-: [4ee-:	fz
.	8.bb-L]	8b-] 8ee-]	.
.	.	8rb	.
.	(48aanLL	.	.
.	48gg	.	.
.	48ffJJJ	.	.
*clefG2	*	*	*
*	*v	*v	*
=34	=34	=34
8g' 8b-'L	8ee-'L)	.
16r	16r	.
(16f 16b-Jk	(16ddJk	.
8e-') 8b-'L)	8gg'L)	.
16r	16r	.
((16d- 16fJk	[16b- (16ffJk	.
4c 4g))	4b-] 4een)	.
4r	16r	.
.	16ee- (16ggLL	mf
.	16ddn 16ff	.
.	16cc 16ee-JJ	.
=35	=35	=35
16r	8b-` 8dd`)	.
(16dn 16fLL	.	.
16c 16e-	8r	.
16B- 16dJJ	.	.
8An) 8c	16r	.
.	16ee- (16ggLL	<
8r	16dd 16ff	.
.	16cc 16ee-JJ	.
16r	8b-` 8dd`)	.
(16d 16fLL	.	.
16c 16e-	8r	.
16B- 16dJJ	.	.
16An`) 16c`LL	16r	.
(<16f	(16ee- 16ggLL	<
16g	16dd 16ff	.
16anJJ	16cc 16ee-JJ	.
!!LO:LB:g=z
=36	=36	=36
16b-`LL)	16dd`LL)	.
(<16dd	(16ff 16bb-	[ f
16cc	16ee- 16aan	.
16b-JJ	16dd 16ggJJ	.
16anLL	16cc 16ffLL	.
16g	16b- 16ee-	.
16f	16an 16dd	.
16e-JJ	16g 16ccJJ	.
4d	4f 4bn	.
8e-)	8g 8cc)	.
8r	8r	.
=37	=37	=37
*^	*	*
(4e-	(4c	[4f 4an	>
8d)	8d)	8f] 8b-	]
8r	8ryy	8r	.
2r	2ryy	2r	.
*v	*v	*	*
=38	=38	=38
2r	(2G 2g	p
*clefF4	*	*
!	!	!LO:DY:b=2
(2GGG- 2GG-	2G- 2g-	p
=39	=39	=39
()32FFFLLL	8F') 8f'	f
32FF	.	.
32FFF	.	.
32FFJJJ	.	.
32FFFLLL	8f' 8b-' 8dd' 8ff'	.
32FF	.	.
32FFF	.	.
32FFJJJ	.	.
32FFFLLL	8dd' 8ff' 8bb-'	.
32FF	.	.
32FFF	.	.
32FFJJJ	.	.
32FFFLLL	8ff' 8bb-' 8ddd'	.
32FF	.	.
32FFF	.	.
32FFJJJ	.	.
8FFF')	8ff' 8bb-' 8ddd' 8fff'	.
8r	8r	.
8F' 8An' 8c' 8e-'	8cc' 8ee-' 8ff' 8aan'	.
8r	8r	.
!!LO:LB:g=z
=40	=40	=40
!	!	!LO:DY:rj
8BB-' 8D' 8F' 8B-'	(32bb-LLL	ff
.	32ddd	.
.	32ccc	.
.	32bb-JJJ	.
8r	32aanLLL	.
.	32gg	.
.	32ff	.
.	32eenJJJ	.
8BB-' 8C' 8E-' 8An'	32ee-LLL	.
.	32gg	.
.	32ff	.
.	32ee-JJJ	.
8r	32ddLLL	.
.	32cc	.
.	32b-	.
.	32anJJJ	.
8BB-' 8D' 8F' 8B-'	32b-LLL	.
.	32dd	.
.	32cc	.
.	32b-JJJ	.
8r	32aLLL	.
.	32g	.
.	32f	.
.	32enJJJ	.
8BB-' 8C' 8E-' 8A'	32e-LLL	.
.	32g	.
.	32f	.
.	32e-JJJ	.
8r	32dLLL	.
.	32c	.
.	32B-	.
.	32AnJJJ	.
!!LO:LB:g=z
=41	=41	=41
8BBB-' 8BB-'L	(32B-LLL)	.
.	32An	.
.	32B-	.
.	32FJJJ	.
8DD' 8D'J	32dLLL	.
.	32c#	.
.	32d	.
.	32B-JJJ	.
8FF' 8F'L	32fLLL	.
.	32en	.
.	32f	.
.	32dJJJ	.
8BB-' 8B-'J	32b-LLL	.
.	32an	.
.	32b-	.
.	32fJJJ	.
8D' 8d'L	32ddLLL	.
.	32cc#	.
.	32dd	.
.	32b-JJJ	.
8F' 8f'J	32ffLLL	.
.	32een	.
.	32ff	.
.	32ddJJJ	.
*clefG2	*	*
8B-' 8b-'L	32bb-LLL	.
.	32aan	.
.	32bb-	.
.	32ffJJJ	.
8f' 8ee-'J	32cccLLL	.
.	32bbn	.
.	32ccc	.
.	32ffJJJ	.
!!LO:LB:g=z
=42	=42	=42
8b-' 8dd'L	32bb-XLLL	.
.	32aan	.
.	32bb-	.
.	32ffJJJ	.
8f' 8ee-'J	32cccLLL	.
.	32bbn	.
.	32ccc	.
.	32ffJJJ	.
8b-' 8dd'L	32bb-LLL	.
.	32aa	.
.	32bb-	.
.	32ffJJJ	.
8f' 8ee-'J	32cccLLL	.
.	32bbn	.
.	32ccc	.
.	32ffJJJ	.
(32b-LLL	8bb-'L)	.
32dd	.	.
32b-	.	.
32ddJJJ	.	.
32b-LLL	8bb-' 8ddd'	.
32dd	.	.
32b-	.	.
32ddJJJ	.	.
32b-LLL	8ddd' 8fff'	.
32dd	.	.
32b-	.	.
32ddJJJ	.	.
32b-LLL	8bb-' 8ddd'J	.
32dd	.	.
32b-	.	.
32ddJJJ	.	.
=43	=43	=43
8b-')	8ddd' 8fff'	.
8r	8r	.
8b-' 8dd'	8bb-' 8ddd'	p
8r	8r	.
8b-' 8dd'	8ff' 8bb-'	.
8r	8r	.
4r	4r	.
*clefF4	*	*
!!LO:LB:g=z
=44:|!	=44:|!	=44:|!
*>B	*>B	*>B
!	!	!LO:DY:rj:c
((2BBB- 2BB-	2d (>2f	p
2AAA-X 2AA-X	2c 2f#	.
=45	=45	=45
1GGG; ))1GG;	1Bn; 1g;)	.
=46	=46	=46
4r	8.r	.
.	(16gg	f
!	!	!LO:DY:b=2
8c' 8en'L	16een'LL)	f
.	32r	.
.	(32ggk	.
8G' 8d'J	16dd')	.
.	32r	.
.	(32ggJJk	.
8En' 8c'	16cc'LL)	.
.	32r	.
.	(32ggk	.
8r	16g')	.
.	32r	.
.	(32ggJJk	.
8c' 8e'L	16ee'LL)	.
.	32r	.
.	(32ggk	.
8G' 8d'J	16dd')	.
.	32r	.
.	(32ggJJk	.
=47	=47	=47
8En' 8c'	16cc'LL)	.
.	32r	.
.	(32ggk	.
*clefG2	*	*
16.r	16g')	.
.	32r	.
(32c	(32cccJJk	.
16en'LL)	16gg'LL)	.
32r	32r	.
(32ck	(32ccck	.
16f')	16aan')	.
32r	32r	.
(32cJJk	(32cccJJk	.
16g'LL)	16bb-X'LL)	.
32r	32r	.
(32ck	(32ccck	.
16an')	16aa')	.
32r	32r	.
(32cJJk	(32cccJJk	.
16b-X'LL)	16gg'LL)	.
32r	32r	.
(32ck	(32ccck	.
16b-')	16een')	.
32r	32r	.
32cJJk	(32cccJJk	.
!!LO:LB:g=z
=48	=48	=48
!	!	!LO:DY:rj:c
8f' 8an'	32ffLLL	ff
.	32ccc	.
.	32ddd	.
.	32cccJJJ	.
8r	32bb-LLL	.
.	32aan	.
.	32gg	.
.	32ffJJJ	.
8c' 8b-'	32eenLLL	.
.	32gg	.
.	32bb-	.
.	32dddJJJ	.
8r	32cccLLL	.
.	32bb-	.
.	32aa	.
.	32ggJJJ	.
8d:' 8f:' 8a:'	32ffLLL	.
.	32ee	.
.	32ff	.
.	32ggJJJ	.
8r	32aaLLL	.
.	32ff	.
.	32ee	.
.	32ddJJJ	.
8An' 8g'	32cc#LLL	.
.	32ee	.
.	32gg	.
.	32bb-JJJ	.
8r	32aaLLL	.
.	32gg	.
.	32ff	.
.	32eeJJJ	.
=49	=49	=49
8B-' 8f'	32ddLLL	.
.	32ee-X	.
.	32ff	.
.	32ggJJJ	.
8r	32ffLLL	.
.	32dd	.
.	32cc	.
.	32b-JJJ	.
*clefF4	*	*
8F' 8e-X'	32anLLL	.
.	32dd	.
.	32ee-	.
.	32ggJJJ	.
8r	32ffLLL	.
.	32ee-	.
.	32dd	.
.	32ccJJJ	.
8G' 8d'	32b-LLL	.
.	32a	.
.	32b-	.
.	32ccJJJ	.
8r	32ddLLL<	.
.	32b-	.
.	32a	.
.	32gJJJ	.
8D' 8c'	32f#LLL	.
.	32a	.
.	32cc	.
.	32ee-JJJ	.
8r	32ddLLL	.
.	32cc	.
.	32b-	.
.	32aJJJ	.
!!LO:LB:g=z
=50	=50	=50
(32E-LLL	8g')	.
32G	.	.
32E-	.	.
32GJJJ	.	.
32E-LLL	4b- (4bb-	fz
32G	.	.
32E-	.	.
32GJJJ	.	.
32E-LLL	.	.
32G	.	.
32E-	.	.
32GJJJ	.	.
32E-LLL	8an 8aan	.
32G	.	.
32E-	.	.
32GJJJ	.	.
32E-LLL	8g 8ggL	.
32G	.	.
32E-	.	.
32GJJJ	.	.
32E-LLL	8e- 8ee-J	.
32G	.	.
32E-	.	.
32GJJJ	.	.
32E-LLL	8d 8ddL	.
32G	.	.
32E-	.	.
32GJJJ	.	.
32E-LLL	8c# 8cc#J	.
32G	.	.
32E-	.	.
32GJJJ	.	.
=51	=51	=51
*^	*	*
4F#)	1D	16ddLL)	mf
.	.	(16ddd	.
.	.	16ccc#	.
.	.	16eeenJJ	.
16rc	.	16dddLL	.
(16GLL	.	16bb-	.
16F#	.	16aan	.
16AnJJ	.	16cccnJJ	.
16GLL	.	16bb-LL	.
16B-	.	16gg	.
16A	.	16ff#	.
16cJJ	.	16aaJJ	.
8B-L	.	16ggLL	.
.	.	16ee-X	.
8GJ	.	16dd	.
.	.	16cc#JJ	.
!!LO:LB:g=z
=52	=52	=52	=52
4F#)	4D	16ddLL)	.
.	.	(16ddd	.
.	.	16ccc#	<
.	.	16eeenJJ	.
*clefG2	*	*	*
16r	2.ryy	16dddLL	.
(<16gLL	.	16bb-	.
16f#	.	16aan	.
16anJJ	.	16cccnJJ	.
16gLL	.	16bb-LL	.
16b-	.	16gg	.
16a	.	16ff#	.
16ccJJ	.	16aaJJ	.
16b-LL	.	16ggLL)	.
16g	.	(16eee-	fz
16f#	.	16ddd	.
16aJJ	.	16cccJJ	.
*v	*v	*	*
=53	=53	=53
16gLL)	16bb-LL	.
!	!	!LO:DY:b=2
(<16ee-	16gg	fz
16dd	16ff#	.
16ccJJ	16aanJJ	.
16b-LL	16ggLL)	.
16g	(16eee-	fz
16f#	16ddd	.
16anJJ	16cccJJ	.
16gLL)	16bb-LL	.
!	!	!LO:DY:b=2
(<16ee-	16gg	fz
16dd	16ff#	.
16ccJJ	16aaJJ	.
16b-LL	16ggLL	.
16g	16bb-	.
16cc	16een	.
16b-JJ	16ggJJ	.
=54	=54	=54
16a-XLL	16ffnLL	.
16fn	16aa-X	.
16b-	16dd	.
16a-JJ	16ffJJ	.
16gLL	16ee-LL	.
16e-	16gg	.
16a-	16cc	.
16gJJ	16ee-JJ	.
16fLL	16ddLL	.
16d	16ff	.
16g	16bn	.
16fJJ	16ddJJ	.
16e-LL	16ccLL)	.
16c	(16aa-	fz
16Bn	16gg	.
16dJJ	16ffJJ	.
!!LO:LB:g=z
=55	=55	=55
16cLL)	16ee-LL	.
!	!	!LO:DY:b=2
(16a-	16cc	fz
16g	16bn	.
16fJJ	16ddJJ	.
16e-LL	16ccLL)	.
16c	(16aa-	fz
16Bn	16gg	.
16dJJ	16ffJJ	.
16cLL)	16ee-LL	.
!	!	!LO:DY:b=2
(16a-	16cc	fz
16g	16b	.
16fJJ	16ddJJ	.
8e-)	16ccLL	.
.	16gg	.
16r	16b	.
(16f 16a-	16ddJJ	.
=56	=56	=56
8e-) 8g	16ccLL	.
.	16gg	.
16r	16bn	.
(16f 16a-	16ddJJ	.
8e-) 8g	16ccLL	.
.	16gg	.
16r	16b	.
(16f 16a-	16ddJJ	<
2e-) 2g	16ccLL	.
.	16gg	.
.	16cc	.
.	16ggJJ	.
.	16ccLL	.
.	16gg	.
.	16cc	.
.	16ggJJ)	[[
=57	=57	=57
*^	*^	*
8gL	(16e-LL	(16ccLL	2ryy	f
.	16c	16gg 16ccc	.	.
8gJ	16e-	16cc	.	.
.	16cJJ	16gg 16cccJJ	.	.
8gL	16e-LL	16ccLL	.	.
.	16c	16gg 16ccc	.	.
8gJ	16e-	16cc	.	.
.	16cJJ)	16gg 16cccJJ)	.	.
(<16a-LL	2ryy	2ccc	(8.ggL	fz
16cc	.	.	.	.
16a-	.	.	.	.
16ccJJ	.	.	32aa-LL	.
.	.	.	32ggJJJ	.
16a-LL	.	.	8ffL)	.
16cc	.	.	.	.
16a-	.	.	8ffJ	.
16ccJJ	.	.	.	.
*v	*v	*	*	*
!!LO:LB:g=z
=58	=58	=58	=58
!	!	!	!LO:DY:rj
16gLL	(4.ddd-	(8.ffL	fz
16b-	.	.	.
16g	.	.	.
16b-JJ	.	32ggLL	.
.	.	32ffJJJ	.
16cLL	.	8eenL)	.
16b-	.	.	.
16c	16bb-LL	8eeJ	.
16b-JJ	16ggJJ	.	.
4f)	(16aa-LL)	2ryy	.
.	16cc	.	.
.	16aa-	.	.
.	16ccJJ	.	.
*clefF4	*	*	*
(8.FFL	16aa-LL	.	p
.	16dd-	.	.
.	16aa-	.	.
32GGLL	16dd-JJ	.	.
32FFJJJ	.	.	.
*	*v	*v	*
=59	=59	=59
8EEn)	16ggLL	.
.	16dd-	.
8r	16gg	.
.	16dd-JJ	.
*clefG2	*	*
(8.e-XL	16ggLL	.
.	16cc	.
.	16gg	.
32fLL	16ccJJ	.
32e-JJJ	.	.
8dn)	16ffLL	.
.	16cc	.
8r	16ff	.
.	16ccJJ	.
*clefF4	*	*
(8.DD-L	16ffLL	.
.	16b-	.
.	16ff	.
32EE-yLL	16b-JJ	.
32DD-JJJ	.	.
=60	=60	=60
8CC)	16ee-LL	.
.	16b-	.
8r	16ee-	.
.	16b-JJ	.
*clefG2	*	*
(8.cL	16ee-LL	<
.	16a-	.
.	16ee-	.
32d-LL	16a-JJ	.
32cJJJ	.	.
8B-)	16dd-LL	.
.	16a-	.
8r	16dd-	.
.	16a-JJ	.
*clefF4	*	*
(8.BBB-L	16dd-LL	.
.	16g	.
.	16dd-	.
32CCLL	16gJJ	.
32BBB-JJJ	.	[[
!!LO:LB:g=z
=61	=61	=61
4AAA-)	(32ccLLL)	f
.	32ee-	.
.	32ff	.
.	32ee-JJJ	.
.	32dd-LLL	.
.	32cc	.
.	32b-	.
.	32a-JJJ	.
4E- 4B- 4d-	32gLLL	.
.	32ff	.
.	32ee-	.
.	32dd-JJJ	.
.	32ccLLL<	.
.	32b-	.
.	32a-	.
.	32gJJJ	.
4A- 4c	32a-LLL	.
.	32b-	.
.	32cc	.
.	32dd-JJJ	.
.	32ee-LLL	.
.	32ff	.
.	32gg	.
.	32aa-JJJ	.
4G 4B- 4e-	32bb-LLL	.
.	32ccc	.
.	32bb-	.
.	32aa-JJJ	.
.	32ggLLL	.
.	32ff	.
.	32ee-	.
.	32dd-JJJ	.
=62	=62	=62
4A- 4c 4e-	32ccLLL	.
.	32ee-	.
.	32ff	.
.	32ee-JJJ	.
.	32dd-LLL	.
.	32cc	.
.	32b-	.
.	32a-JJJ	.
4B- 4d- 4e-	32gLLL	.
.	32ff	.
.	32ee-	.
.	32dd-JJJ	.
.	32ccLLL<	.
.	32b-	.
.	32a-	.
.	32gJJJ	.
4c 4e-	32a-LLL	.
.	32b-	.
.	32cc	.
.	32dd-JJJ	.
.	32ee-LLL	.
.	32ff	.
.	32gg	.
.	32aa-JJJ	.
4G 4B- 4e-	32bb-LLL	.
.	32ccc	.
.	32bb-	.
.	32aa-JJJ	.
.	32ggLLL	.
.	32ff	.
.	32ee-	.
.	32dd-JJJ	.
*clefG2	*	*
!!LO:LB:g=z
=63	=63	=63
(8a-L	32ccLLL	p
.	32dd-	.
.	32ee-	.
.	32dd-JJJ	.
8e-	32ccLLL	.
.	32dd-	.
.	32ee-	.
.	32dd-JJJ	.
8c	32ccLLL	.
.	32dd-	.
.	32ee-	.
.	32dd-JJJ	.
8A-J)	32ccLLL	.
.	32dd-	.
.	32ee-	.
.	32dd-JJJ	<
(8g-L	32ccLLL	.
.	32dd-	.
.	32ee-	.
.	32dd-JJJ	.
8e-	32ccLLL	.
.	32dd-	.
.	32ee-	.
.	32dd-JJJ	.
8c	32ccLLL	.
.	32dd-	.
.	32ee-	.
.	32dd-JJJ	.
8G-J)	32ccLLL	.
.	32dd-	.
.	32ee-	.
.	32dd-JJJ	[[
*clefF4	*	*
=64	=64	=64
2FFF# 2FF#	32ccLLL	f
.	32ddn	.
.	32ee-	.
.	32ddJJJ	.
.	32ccLLL	.
.	32dd	.
.	32ee-	.
.	32ddJJJ	.
.	32ccLLL	.
.	32dd	.
.	32ee-	.
.	32ddJJJ	.
.	32ccLLL	.
.	32ee-	.
.	32dd	.
.	32ccJJJ	.
!	!	!LO:DY:rj
8GGG' 8GG'	(32bnLLL)	ff
.	32g	.
.	32b	.
.	32ddJJJ	.
8r	32ggLLL	.
.	32dd	.
.	32b	.
.	32gJJJ	.
8GG'\ 8C'\ 8E-'\ 8G'\	32f#LLL<	.
.	32g	.
.	32cc	.
.	32ee-JJJ	.
8r	32ggLLL	.
.	32ee-	.
.	32cc	.
.	32gJJJ	.
!!LO:LB:g=z
=65	=65	=65
8GG'\ 8BBn'\ 8D'\ 8G'\	32f#LLL<	.
.	32g	.
.	32bn	.
.	32ddJJJ	.
8r	32ggLLL	.
.	32dd	.
.	32b	.
.	32gJJJ	.
8GG'\ 8C'\ 8E-'\ 8G'\	32f#LLL<	.
.	32g	.
.	32cc	.
.	32ee-JJJ	.
8r	32ggLLL	.
.	32ee-	.
.	32cc	.
.	32gJJJ	.
(32GGLLL<	8gg')	.
32BBn	.	.
32D	.	.
32GJJJ	.	.
32A-XLLL	8r	.
32G	.	.
32D	.	.
32BBJJJ	.	.
32GGLLL<	8g:' 8cc:' 8ee-:' 8gg:'	.
32C	.	.
32E-	.	.
32GJJJ	.	.
32A-LLL	8r	.
32G	.	.
32E-	.	.
32CJJJ	.	.
=66	=66	=66
32GGLLL<	8g:' 8bn:' 8dd:' 8gg:'	.
32BBn	.	.
32D	.	.
32GJJJ	.	.
32A-XLLL	8r	.
32G	.	.
32D	.	.
32BBJJJ	.	.
32GGLLL<	8g:' 8cc:' 8ee-:' 8gg:'	.
32C	.	.
32E-	.	.
32GJJJ	.	.
32A-LLL	8r	.
32G	.	.
32E-	.	.
32CJJJ	.	.
8GG')	8g:' 8b:' 8dd:' 8gg:'	fz
8r	8r	.
8GG:' 8BBn:' 8D:' 8G:'	8dd:' 8gg:' 8bbn:'	fz
8r	8r	.
*	*clefF4	*clefF4
=67	=67	=67
1GGG; 1GG;	1BBn; 1D; 1G;	fz
*	*clefG2	*clefG2
!!LO:LB:g=z
=68	=68	=68
4r	8.r	.
.	(16bbn	p
*clefG2	*	*
!	!	!LO:DY:b=2:rj
8en' 8g#'L	16gg#'LL)	p
.	32r	.
.	(32bbk	.
8Bn' 8f#'J	16ff#')	.
.	32r	.
.	(32bbJJk	.
8G#' 8e'	16een'LL)	.
.	32r	.
.	(32bbk	.
8r	16bn')	.
.	32r	.
.	(32bbJJk	.
8e' 8g#'L	16gg#'LL)	.
.	32r	.
.	(32bbk	.
8B' 8f#'J	16ff#')	.
.	32r	.
.	(32bbJJk	.
=69	=69	=69
8G#' 8en'	16een'LL)	.
.	32r	.
.	(32bbnk	.
16.r	16bn')	.
.	32r	.
(32e	(32eeenJJk	.
16g#'LL)	16bb'LL)	.
32r	32r	.
(32ek	(32eeek	.
16an')	16ccc#')	.
32r	32r	.
(32eJJk	(32eeeJJk	.
16bn'LL)	16dddn'LL)	.
32r	32r	.
(32ek	(32eeek	.
16cc#)	16ccc#')	<
32r	32r	.
(32eJJk	(32eeeJJk	.
16dd'LL)	16bb'LL)	.
32r	32r	.
(32ek	(32eeek	.
16dd')	16gg#')	.
32r	32r	.
(<32eJJk	(32eeeJJk	[[
!!LO:LB:g=z
=70	=70	=70
8cc#')	16aan'LL)	.
.	32r	.
.	(32ccc#k	.
8r	16een')	.
.	32r	.
.	(32eeJJk	.
*clefF4	*	*
8An' 8c#'L	16cc#'LL)	.
.	32r	.
.	(32eek	.
8En' 8Bn'J	16bn')	.
.	32r	.
.	(32eeJJk	.
8C#' 8An'	16an'LL)	.
.	32r	.
.	(32eek	.
8r	16en')	.
.	32r	.
.	(32eeJJk	.
8A' 8c#'L	16cc#'LL)	.
.	32r	.
.	(32eek	.
8E' 8B'J	16b')	.
.	32r	.
.	(32eeJJk	.
=71	=71	=71
8C# 8An	16an'LL)	<
.	32r	.
.	(32eenk	.
8r	16en')	.
.	32r	.
.	(32aanJJk	.
4r	16a'LL)	.
.	32r	.
.	(32ccc#k	.
.	16cc#')	.
.	32r	.
.	(32eeenJJk	.
*clefG2	*	*
(4cc# 4een	16aa'LL)	.
.	32r	[
.	(32eeek	.
.	16aa')	<
.	32r	.
.	(32eeeJJk	.
4bn 4dd	16ggn'LL)	.
.	32r	.
.	(32eeek	.
.	16gg')	.
.	32r	.
.	(32eeeJJk	.
!!LO:LB:g=z
=72	=72	=72
!LO:N:n=1:acc=n#	!	!
8a# 8cc#L	16ff#'LL)	.
.	32r	.
.	(32eeenk	.
8bn 8ddJ	16gg')	.
.	32r	.
.	(32eeeJJk	.
8a# 8cc#L	16ff#'LL)	.
.	32r	.
.	(32eeek	.
8f# )8a#J	16ccc#')	.
.	32r	.
.	(32eeeJJk	.
(16bLL	4ddd')	f
16dd	.	.
16b	.	.
16ddJJ	.	.
16bLL	(8.ggL	.
16dd	.	.
16b	.	.
16ddJJ	32aanLL	.
.	32ggJJJ	.
=73	=73	=73
16a#LL	4ff#	>
16cc#	.	.
16a#	.	.
16cc#JJ	.	.
!	!LO:N:acc=n#	!
16bnLL	4ee#	.
16dd	.	.
16b	.	.
16ddJJ	.	.
16a#LL	4ff#)	.
16cc#	.	]
16a#	.	.
16cc#JJ	.	.
(8.bL)	(16dddLL	p
.	16gg	.
.	16ddd	.
32cc#LL	16ggJJ	.
32bJJJ	.	.
=74	=74	=74
!LO:N:acc=n#	!	!
4a#	16ccc#LL	.
.	16gg	.
.	16ccc#	.
.	16ggJJ	.
4an	16cccnLL	.
.	16ff#	.
.	16ccc	.
.	16ff#JJ	.
4g#	16bbnLL	.
.	16ffn	.
.	16bb	.
.	16ffJJ	.
(8.gnL)	(16bbLL)	.
.	16een	.
.	16bb	.
32aLL	16eeJJ	.
32gJJJ	.	.
!!LO:LB:g=z
=75	=75	=75
!	!LO:N:acc=n#	!
4.f#	16aa#LL	<
.	16een	.
.	16aa#	.
.	16eeJJ	.
.	16aa#LL	.
.	16ee	.
8g	16bbn	.
.	16eeJJ	.
4.f#	16aa#LL	.
.	16ee	.
.	16aa#	.
.	16eeJJ	.
.	16aa#LL	.
.	16ee	.
8g	16bb	.
.	16eeJJ	[[
=76	=76	=76
2f#	16aa#LL	>
.	16een	.
.	16aa#	.
.	16eeJJ	.
.	16aa#LL	.
.	16ee	.
.	16aa#	.
.	16eeJJ	.
2fn)	16aanLL	]
.	16ee-	.
.	16aa	.
.	16ee-JJ	.
.	16aaLL	.
.	16ee-	.
.	16aa	.
.	16ee-JJ)	.
=77	=77	=77
*^	*	*
2f	(4.B-X	(16aa-XLL	mf <
.	.	16dd	.
.	.	16aa-	.
.	.	16ddJJ	.
.	.	16aa-LL	.
.	.	16dd	.
.	8c-	16aa-	.
.	.	16ee-JJ	.
2f	4.B-	16aa-LL	.
.	.	16dd	.
.	.	16aa-	.
.	.	16ddJJ	.
.	.	16aa-LL	.
.	.	16dd	.
.	8c-	16aa-	.
.	.	16ee-JJ)	[
*v	*v	*	*
!!LO:LB:g=z
=78	=78	=78
2B- 2f)	(16aa-LL	f
.	16dd	.
.	16ff	<
.	16a-JJ	.
.	16ccLL	.
.	16f	.
.	16a-	.
.	16dJJ	.
*clefF4	*	*
4r	16fLL	.
.	16A-	.
.	16c	.
.	16FJJ	.
16r	16A-)	.
!	!	!LO:HP:b=2
(>16BB-LL	16r	<
16C	8r	.
16DJJ	.	[[
=79	=79	=79
4EE-: 4GG: 4BB-: 4E-:)	4G: 4B-: (>4e-:	ff
8.EE-: 8.GG: 8.BB-: 8.D-:L	8.d-: 8.e-: 8.g:L	.
16EE- 16GG 16BB- 16D-Jk	16d- 16e- 16gJk	.
2EE-: 2AA-: 2C:	[4c: [>4e-: [4a-:)	fz
.	8c] 8e-] 8a-L]	.
.	(32a-LL	.
.	32g	.
.	32f	.
.	32e-JJJ	.
=80	=80	=80
*	*^	*
4EE-: 4FF: 4AA-: 4Dn:	8.G 8.A- (>8.dnL)	4ryy	.
.	16fJk	.	.
4EE-: 4FF: 4AA-: 4D:	8.b-:L	4d: 4f:	>
.	.	.	]
.	16a-Jk	.	.
4EE-: 4GG: 4BB-: 4E-:	4B-: 4e-: 4g:)	2ryy	.
4r	4r	.	.
*clefG2	*	*	*
*	*v	*v	*
!!LO:LB:g=z
=81	=81	=81
8B-' 8f' 8a-'	(8.ddL	p
8r	.	.
.	16ffJk	.
8B-' 8f' 8a-'	8.bb-L	.
16r	.	.
(16d	16aa-Jk	.
8e-)	8gg)	.
8r	8r	.
16r	16r	.
*clefF4	*	*
!	!	!LO:DY:rj
(16B-LL	16aa- (16cccLL	mf
16c	16gg 16bb-	.
16dJJ	16ff 16aa-JJ	.
=82	=82	=82
)8e-''	8ee-'' 8gg'')	<
8r	8r	.
16r	16r	.
(16B-LL	16aa- (16cccLL	.
16c	16gg 16bb-	.
16dJJ	16ff 16aa-JJ	.
8e-'')	8ee-'' 8gg'')	.
8r	8r	.
4r	16r	.
.	16aa- (16cccLL	f
.	16gg 16bb-	.
.	16ff 16aa-JJ	.
=83	=83	=83
1r	16ee-'' 16gg''LL)	.
.	16aa- (16ccc	.
.	16gg 16bb-	.
.	16ff 16aa-JJ	.
.	16ee-'' 16gg''LL)	>
.	16gg (16bb-	.
.	16ff 16aa-	.
.	16ee- 16ggJJ	.
.	16dd 16ffLL	.
.	16cc 16ee-	.
.	16b- 16dd	.
.	16a- 16ccJJ	.
.	16g 16b-LL	.
.	16f 16a-	.
.	16e- 16g	.
.	16d 16fJJ	]]
!!LO:LB:g=z
=84	=84	=84
(16CLL	[4e-)	p
16A-	.	.
16C	.	.
16A-JJ	.	.
16CLL	(8.e-L]	.
16A-	.	.
16C	.	.
16A-JJ	32fLL	.
.	32e-JJJ	.
16BB-LL	4d	.
16A-	.	.
16BB-	.	.
16A-JJ	.	.
16BB-LL	4d-^>	.
16G	.	.
16BB-	.	.
16GJJ	.	.
=85	=85	=85
16AA-LL	[4c)	.
16G	.	.
16AA-	.	.
16GJJ	.	.
16AA-LL<	(8.cL]	.
16F	.	.
16AA-	.	.
16FJJ	32dnLL	.
.	32cJJJ	.
!	!	!LO:HP:a
16GGLL<	8.B-L	<
16F	.	.
16GG	.	.
16FJJ	32cLL	.
.	32dJJJ	.
16GGLL	8.e-L	.
16E-	.	.
16GG	.	.
16E-JJ	32fLL	.
.	32gJJJ	[[
=86	=86	=86
!	!	!LO:HP:a
16FFLL	4a-	>
16D	.	.
16FF	.	.
16DJJ	.	.
16EE-LL	4g	]
16GG	.	.
16BB-	.	.
16E-JJ	.	.
4BB-)	16f)	.
.	(16b-LL	mf
.	16an	.
.	16ccJJ	.
16r	16b-LL	.
(16B-LL	16dd	.
16An	16cc	.
16cJJ	16ee-JJ	.
!!LO:LB:g=z
=87	=87	=87
*^	*	*
16B-LL	2ryy	16ddLL	.
16d	.	16ff	.
16c	.	16ee-	.
16e-JJ	.	16ggJJ	.
*clefG2	*clefG2	*	*
16dLL	.	16ffLL	.
16f	.	16aa-X	.
16en	.	16gg	.
16gJJ	.	16bb-JJ	.
(2f)	4r	16aa-LL	.
.	.	16gg	.
.	.	16ff	.
.	.	16ee-XJJ	.
.	(4B-	16ddLL	.
.	.	16ccc	.
.	.	16bb-	.
.	.	16aa-JJ	.
=88	=88	=88	=88
4g)	4e-X)	16ggLL	.
.	.	16aa-	.
.	.	16bb-	.
.	.	16bbnJJ	.
(8.ee-^L	2.ryy	16cccLL	.
.	.	16gg	.
.	.	16ccc	.
32ffLL	.	16ggJJ	.
32ee-JJJ	.	.	.
8dd)	.	16cccLL	.
.	.	16ff	.
8r	.	16ccc	.
.	.	16ffJJ	.
*clefF4	*clefF4	*	*
(8.DD-^>L	.	16bb-LL	.
.	.	16ff	.
.	.	16bb-	.
32EE-LL	.	16ffJJ	.
32DD-JJJ	.	.	.
*v	*v	*	*
=89	=89	=89
8CC)	16bb-LL	.
.	16ee-	.
8r	16bb-	.
.	16ee-JJ	.
*clefG2	*	*
(8.cc^<L	16aa-XLL	.
.	16ee-	.
.	16aa-	.
32dd-LL	16ee-JJ	.
32ccJJJ	.	.
8b-)	16aa-LL	.
.	16ddn	.
8r	16aa-	.
.	16ddJJ	.
*clefF4	*	*
(8.BBB-^L	16ggLL	.
.	16dd	.
.	16gg	.
32CCLL	16ddJJ	.
32BBB-JJJ	.	.
!!LO:LB:g=z
=90	=90	=90
8AAA-)	16ggLL	<
.	16cc	.
8r	16gg	.
.	16ccJJ	.
*clefG2	*	*
(8.a-^L	16ffLL	.
.	16cc	.
.	16ff	.
32b-LL	16ccJJ	.
32a-JJJ	.	.
8g)	16ffLL	.
.	16b-	.
8r	16ff	.
.	16b-JJ	.
*clefF4	*	*
(8.GGG^L	16ee-LL	.
.	16b-	.
.	16ee-	.
32AAA-LL	16b-JJ	.
32GGGJJJ	.	.
=91	=91	=91
8FFFL)	16ddLL	.
.	16b-	.
(8DDJ	16aa-	.
.	16b-JJ	.
8EE-L	16ggLL	.
.	16b-	.
8GGJ	16ee-	.
.	16b-JJ	.
8BB-)	8dd''L)	.
(16FLL	8dd 8bb-	f
16BB-JJ	.	.
16G-LL	8ee- 8aan	.
16BB-	.	.
16An	8ee- 8gg-J	.
16BB-JJ	.	.
=92	=92	=92
16B-LL	(8dd 8ffL	.
16BB-)	.	.
(16F	8dd 8bb-	.
16BB-JJ	.	.
16G-LL	8ee- 8aan	.
16BB-	.	.
16An	8ee- 8gg-J	.
16BB-JJ)	.	.
(16B-LL	8dd (8ffL)	.
16BB-	.	.
16B-	8een 8ggn	.
16BB-JJ	.	.
16B-LL	8ff 8aa-	.
16BB-	.	.
16B-	8ee 8ggJ	.
16BB-JJ	.	.
!!LO:LB:g=z
=93	=93	=93
16B-LL	4gg 4bb-	<
16BB-	.	.
16B-	.	.
16BB-JJ	.	.
16B-LL	8ff 8aa-L)	.
16BB-	.	.
16B-	8dd 8ffJ	[ ff
16BB-JJ)	.	.
4E-: 4G: 4B-: 4e-:	4g: 4b-: (4ee-X:	.
8.E-: 8.G: 8.B-: 8.d-:L	8.dd-: 8.ee-: 8.gg:L	.
16E- 16G 16B- 16d-Jk	16dd- 16ee- 16ggJk	.
=94	=94	=94
2E-: 2A-: 2c:	4cc: 4ee-: [4aa-:)	fz
.	(32aa-LLL]	.
.	32bb-	.
.	32ccc	.
.	32bb-JJJ	.
.	32aa-LLL	.
.	32gg	.
.	32ff	.
.	32ee-JJJ	.
2E- 2F 2A- 2dn	32ddnLLL	.
.	32ee-	.
.	32ff	.
.	32ggJJJ	.
.	32aa-LLL	.
.	32gg	.
.	32ff	.
.	32ee-JJJ	.
.	32ddLLL	.
.	32ee-	.
.	32ff	.
.	32ee-JJJ	.
.	32ddLLL	.
.	32cc	.
.	32b-	.
.	32a-JJJ	.
!!LO:LB:g=z
=95	=95	=95
4E- 4G 4B- 4e-	32g'LLL)	.
.	(32bb-	.
.	32ccc	.
.	32bb-JJJ	.
.	32aa-LLL	.
.	32gg	.
.	32ff	.
.	32ee-JJJ	.
4A- 4B- 4f	32ddLLL	.
.	32ccc	.
.	32bb-	.
.	32aa-JJJ	.
.	32ggLLL	.
.	32ff	.
.	32ee-	.
.	32ddJJJ	.
4G 4B- 4e-	32ee-'LLL)	.
.	(32bb-	.
.	32ccc	.
.	32bb-JJJ	.
.	32aa-LLL	.
.	32gg	.
.	32ff	.
.	32ee-JJJ	.
4A- 4B- 4f	32ddLLL	.
.	32ccc	.
.	32bb-	.
.	32aa-JJJ	.
.	32ggLLL	.
.	32ff	.
.	32ee-	.
.	32ddJJJ	.
=96	=96	=96
(<2G 2B- 2e-	32ee-LLL	fz
.	32ff	.
.	32gg	.
.	32aa-JJJ	.
.	32bb-LLL	.
.	32ccc	.
.	32ddd-	.
.	32eee-JJJ	.
.	32ddd-LLL	.
.	32ccc	.
.	32bb-	.
.	32aa-JJJ	.
.	32ggLLL	.
.	32ff	.
.	32ee-	.
.	32dd-JJJ	.
4A-) 4c 4e-	16cc)	.
.	16ccc''LL	p
.	16bbn''	.
.	16dddn''JJ	.
4r	16ccc''LL	.
.	16eee-''	.
.	16bb''	.
.	16ddd''JJ	.
!!LO:LB:g=z
=97	=97	=97
*^	*^	*
8r	8ryy	16ccc''LL	2.ryy	<
.	.	16eee-''	.	.
*clefG2	*clefG2	*	*	*
16bn`LL<	4.ryy	16bbn''	.	.
16dd''JJ	.	16dddJJ	.	.
16cc''LL<	.	16ccc''LL	.	f
16ee-''JJ	.	16eee-''JJ	.	.
!LO:TUP:b	!	!LO:TUP:a	!	!
(>24ccLL	.	(24cccLL	.	.
24a-	.	24aa-	.	.
24fJJ	.	24ffJJ	.	.
4g	2B-X	8.ee-L	.	.
.	.	16ee-sSSsJk	.	.
4a-	.	8.ggL	4dd	.
.	.	16ffJk	.	.
=98	=98	=98	=98	=98
8g)	8e-	8ee-)	8ee-	.
*	*	*v	*v	*
*v	*v	*	*
8r	16.r	.
.	(32bb-	p
!	!	!LO:DY:b=2:rj
8e-' 8g'L	16gg'LL)	p
.	32r	.
.	(32bb-k	.
8B-' 8f'J	16ff')	.
.	32r	.
.	(32bb-JJk	.
8G' 8e-'	16ee-'LL)	.
.	32r	.
.	(32bb-k	.
8r	16b-')	.
.	32r	.
.	(32bb-JJk	.
8e-' 8g'L	16gg'LL)	.
.	32r	.
.	(32bb-k	.
8B-' 8f'J	16ff')	.
.	32r	.
.	(32bb-JJk	.
!!LO:LB:g=z
=99	=99	=99
*^	*	*
8G' 8e-'	2ryy	16ee-'LL)	.
.	.	32r	.
.	.	(32bb-k	.
8r	.	16b-')	.
.	.	32r	.
.	.	(32bb-JJk	.
8G' 8e-'L	.	16dd-'LL)	.
.	.	32r	.
.	.	(32bb-k	.
8G' 8e-'J	.	16bn')	.
.	.	32r	.
.	.	(32bb-XJJk	.
(8e-L	4.A-	16cc'LL)	.
.	.	32r	.
.	.	(32eenk	.
8cJ	.	16ff')	.
.	.	32r	.
.	.	(32ggJJk	.
[4f)	.	16aa-'LL)	.
.	.	32r	.
.	.	(32ggk	.
.	(8An	16ff')	.
.	.	32r	.
.	.	(32ee-JJk	.
=100	=100	=100	=100
4.f]	8B-L	16ddn'LL)	<
.	.	32r	.
.	.	(32ccck	.
.	8cJ	16bb-')	.
.	.	32r	.
.	.	(32aanJJk	.
.	4d)	16bb-'LL)	.
.	.	32r	.
.	.	(32ccck	.
8b-	.	16bb-')	.
.	.	32r	.
.	.	(32aa-JJk	.
(16g-LL	8e-L	32gg-LLL	[ f
.	.	32aa-	.
16b-	.	32gg-	.
.	.	32ffJJJ	.
16g-	8e-J	16ee-''LL)	.
16b-JJ	.	16ee-''JJ	.
16fLL	8dL	(32aa-LLL	.
.	.	32bb-	.
16b-	.	32aa-	.
.	.	32gg-JJJ	.
16f	8dJ	16ff`LL)	.
16b-JJ)	.	16ff`JJ	.
!!LO:LB:g=z
=101	=101	=101	=101
(16g-LL	8e-L	(32gg-LLL	.
.	.	32aa-	.
16b-	.	32gg-	.
.	.	32ffJJJ	.
16g-	8e-J	16ee-''LL)	.
16b-JJ	.	16ee-''JJ	.
16fLL	8dL	(32aa-LLL	.
.	.	32bb-	.
16b-	.	32aa-	.
.	.	32gg-JJJ	.
16f	8dJ	16ff''LL)	.
)16b-JJ	.	16ff''JJ	.
8G-' 8g-'	8ryy	(32gg-LLL	ff
.	.	32aa-	.
.	.	32gg-	.
.	.	32ffJJJ	.
*clefF4	*clefF4	*	*
8E- 8e-	4.ryy	32ee-LLL	.
.	.	32ff	.
.	.	32ee-	.
.	.	32dd-JJJ	.
8C-' 8c-'	.	32cc-LLL	.
.	.	32dd-	.
.	.	32cc-	.
.	.	32b-JJJ	.
8AA-' 8A-'	.	32a-LLL	.
.	.	32b-	.
.	.	32a-	.
.	.	32g-JJJ	.
*v	*v	*	*
=102	=102	=102
(4FF 4F	32fLLL	.
.	32g-	.
.	32a-	.
.	32g-JJJ	.
.	32fLLL	.
.	32g-	.
.	32a-	.
.	32g-JJJ	.
4EE- 4E-	32fLLL	.
.	32g-	.
.	32a-	.
.	32g-JJJ	.
.	32fLLL	.
.	32g-	.
.	32a-	.
.	32g-JJJ	.
4DD 4D	32fLLL	>
.	32g-	.
.	32a-	.
.	32g-JJJ	.
.	32fLLL	.
.	32g-	.
.	32a-	.
.	32g-JJJ	.
4CC- 4C-	32fLLL	.
.	32g-	.
.	32a-	.
.	32g-JJJ	.
.	32fLLL	.
.	32g-	.
.	32a-	.
.	32g-JJJ	]]
!!LO:LB:g=z
=103	=103	=103
1BBB- 1BB-)	32fLLL	p
.	32gn	.
.	32a-	.
.	32gJJJ	.
.	32fLLL	.
.	32g	.
.	32a-	.
.	32gJJJ	.
.	32fLLL	.
.	32g	.
.	32a-	.
.	32gJJJ	.
.	32fLLL	.
.	32g	.
.	32a-	.
.	32gJJJ	.
.	32fLLL	.
.	32g	.
.	32a-	.
.	32gJJJ	.
.	32fLLL	.
.	32g	<
.	32a-	.
.	32gJJJ	.
.	32fLLL	.
.	32g	.
.	32a-	.
.	32b-JJJ	.
.	32ccLLL	.
.	32dd	.
.	32ee-	.
.	32ffJJJ	.
*clefG2	*	*
=104	=104	=104
4e-: 4g: 4b-:	4ee- 4gg)	ff
4d: 4f: 4b-:	4ff: 4bb-:	.
2c: 2e-: 2a-:	[4ee-: [4aa-: [4eee-:	fz
.	8.ee-] 8.aa-] 8.eee-L]	.
!	!LO:TUP:a	!
.	(48dddLL	.
.	48ccc	.
.	48bb-JJJ	.
=105	=105	=105
8cc' 8ee-'L	8aa-'L)	.
16r	16r	.
(<16b- [16ee-Jk	(16ggJk	.
)8a-' 8ee-'L]	8ccc'L)	.
16r	16r	.
((16g- 16b-Jk	[16ee- (16bb-Jk	.
4f 4cc))	4ee-] 4aan)	.
4r	16r	.
.	16aa- (16cccLL	p
.	16ggn 16bb-	.
.	16ff 16aa-JJ	.
!!LO:LB:g=z
=106	=106	=106
16r	8ee-'' 8gg'')	.
(16gn 16b-LL	.	.
16f 16a-	8r	.
16e- 16gJJ	.	.
8d'' 8f'')	16r	.
.	16aa- (16cccLL	<
8r	16gg 16bb-	.
.	16ff 16aa-JJ	.
16r	8ee-'' 8gg'')	.
(16g 16b-LL	.	.
16f 16a-	8r	.
16e- 16gJJ	.	.
16d'' 16f''LL)	16r	.
(<16b-	16aa- (16cccLL	<
16cc	16gg 16bb-	.
16ddJJ	16ff 16aa-JJ	.
=107	=107	=107
16ee-''LL)	16gg''LL)	.
(16gg	16bb- (16eee-	[ f
16ff	16aa- 16ddd	.
16ee-JJ	16gg 16cccJJ	.
16ddLL	16ff 16bb-LL	.
16cc	16ee- 16aa-	.
16b-	16dd 16gg	.
16a-JJ	16cc 16ffJJ	.
4g	4b- 4een	.
8a-)	8cc 8ff)	.
8r	8r	.
=108	=108	=108
*^	*^	*
(4a-	(4f	(4dd	4.b-	.
8g)	8g)	8ee-)	.	.
8r	8ryy	8r	8ryy	.
2r	2ryy	2r	2ryy	.
*v	*v	*	*	*
*	*v	*v	*
=109	=109	=109
2r	(2c 2cc	p
*clefF4	*	*
!	!	!LO:DY:b=2:rj
(2CC- 2C-	2c- 2cc-	p
=110	=110	=110
2BBB-- 2BB--	2B-- 2b--	.
4AAA- 4AA-	4A- 4a-	.
4BBB-- 4BB--)	4B-- 4b--)	.
!!LO:LB:g=z
=111	=111	=111
!LO:N:acc=n-	!LO:N:n=4:acc=n-	!
!	!LO:N:n=1:acc=n-	!
(32BBB-LLL	4B- 4e- 4g 4b-	f
!LO:N:acc=n-	!	!
32BB-	.	.
32BBB-	.	.
32BB-JJJ	.	.
32BBB-LLL	.	.
32BB-	.	.
32BBB-	.	.
32BB-JJJ	.	.
32BBB-LLL	8g' 8b-' 8ee-'L	.
32BB-	.	.
32BBB-	.	.
32BB-JJJ	.	.
32BBB-LLL	8b-' 8ee-' 8gg'J	.
32BB-	.	.
32BBB-	.	.
32BB-JJJ	.	.
8BBB-')	8ee-' 8gg' 8bb-'	.
16r	16r	.
*clefG2	*	*
16e-' 16g'	16ee-' 16gg'	ff
16g' 16b-'LL	16gg' 16bb-'LL	.
16e-' 16g'	16ee-' 16gg'	.
16g' 16b-'	16gg' 16bb-'	.
16e-' 16g'JJ	16ee-' 16gg'JJ	.
=112	=112	=112
8g' 8b-'	8gg' 8bb-'	.
8r	8r	.
*clefF4	*	*
!	!	!LO:DY:rj
8BB-' 8D' 8F' 8B-'	8f' 8a-' 8b-' 8dd'	fz
8r	8r	.
!	!	!LO:DY:rj
8E-' 8G'	(32ee-LLL	f
.	32gg	.
.	32ff	.
.	32ee-JJJ	.
8r	32ddLLL	.
.	32cc	.
.	32b-	.
.	32anJJJ	.
8BB-' 8F'	32a-LLL<	.
.	32cc	.
.	32b-	.
.	32a-JJJ	.
8r	32gLLL	.
.	32f	.
.	32e-	.
.	32dJJJ	.
!!LO:LB:g=z
=113	=113	=113
8E-' 8G'	32e-'LLL)	.
.	(32gg	.
.	32ff	.
.	32ee-JJJ	.
8r	32ddLLL	.
.	32cc	.
.	32b-	.
.	32anJJJ	.
8BB-' 8F'	32a-LLL<	.
.	32cc	.
.	32b-	.
.	32a-JJJ	.
8r	32gLLL	.
.	32f	.
.	32e-	.
.	32dJJJ	.
8EE-' 8E-'L	32e-LLL	ff
.	32d	.
.	32e-	.
.	32gJJJ	.
8GG' 8G'J	32gLLL	.
.	32f#	.
.	32g	.
.	32b-JJJ	.
8BB-' 8B-'L	32b-LLL	.
.	32an	.
.	32b-	.
.	32ee-JJJ	.
8E-' 8e-'J	32ee-LLL	.
.	32dd	.
.	32ee-	.
.	32ggJJJ	.
*clefG2	*	*
=114	=114	=114
8G' 8g'L	32ggLLL	.
.	32ff#	.
.	32gg	.
.	32bb-JJJ	.
8B-' 8b-'J	32bb-LLL	.
.	32aan	.
.	32bb-	.
.	32eee-JJJ	.
8e-' 8ee-'L	32eee-LLL	.
.	32bb-	.
.	32aa	.
.	32bb-JJJ	.
8B-' 8a-'J	32dddLLL	.
.	32bb-	.
.	32aa	.
.	32bb-JJJ	.
8e-' 8g'L	32eee-LLL	.
.	32bb-	.
.	32aa	.
.	32bb-JJJ	.
8B-' 8a-'J	32dddLLL	.
.	32bb-	.
.	32aa	.
.	32bb-JJJ	.
8e-' 8g'L	32eee-LLL	.
.	32bb-	.
.	32aa	.
.	32bb-JJJ	.
8B-' 8a-'J	32dddLLL	.
.	32bb-	.
.	32aa	.
.	32bb-JJJ	.
!!LO:LB:g=z
=115	=115	=115
(32e-LLL	8eee-'L)	.
32g	.	.
32e-	.	.
32gJJJ	.	.
32e-LLL	8ee-' 8gg'	.
32g	.	.
32e-	.	.
32gJJJ	.	.
32e-LLL	8gg' 8bb-'	.
32g	.	.
32e-	.	.
32gJJJ	.	.
32e-LLL	8ee-' 8gg'J	.
32g	.	.
32e-	.	.
32gJJJ	.	.
32e-LLL	8gg' 8bb-'	.
32g	.	.
32e-	.	.
32gJJJ	.	.
*	*clefF4	*clefF4
.	(D8q	.
32e-LLL	8E-'')	.
32g	.	.
32e-	.	.
32gJJJ	.	.
.	(AAn8q	.
32e-LLL	8BB-''L)	.
32g	.	.
32e-	.	.
32gJJJ	.	.
.	(FF#8q	.
32e-LLL	8GG''J)	.
32g	.	.
32e-	.	.
32gJJJ	.	.
=116	=116	=116
4e-')	4EE-'	.
*clefF4	*clefG2	*clefG2
!	!	!LO:DY:rj
4E-' 4G' 4B-' 4e-'	4gg' 4bb-' 4eee-'	fz
!	!	!LO:DY:rj
4EE- 4GG 4BB- 4E-	4G' 4B-' 4e-'	fz
4r	4r	.
==	==	==
*-	*-	*-
!!!RDF**kern: > = above
!!!RDF**kern: < = below
!!!SMS: Universal Edition 1, Haydn Piano Sonatas, Vol. 4, No. 34
!!!ONB: Stich und Druck von Jos. Eberle & Co. Wien VII. Seidengasse 3-9
!!!ENC: Craig Stuart Sapp
!!!END: 2008/07/06
!!!EED: Craig Stuart Sapp
!!!EEV: 2021/02/02
